X:1
T:Coppélia, Acte 1, i. Valse
T:Valse
T:VALSE.
T:Léo Delibes
T:Coppélia, ou la Fille aux yeux d’émail
T:Swanilda s’approche de la maison de Coppélius et lève les yeux vers la grande fenêtre a vitraux derrière laquelle on aperçoit une jeun fille assise qui, immobile et un livre à la main, paraît absorbée dans sa lecture.
T:Domaine public
T:Domaine public
T:Domaine public
T:Domaine public
T:Domaine public
T:Domaine public
C:Léo Delibes
Z:Domaine public
%%score { ( 1 4 ) | ( 2 3 ) }
L:1/8
Q:1/4=160
M:3/4
K:Eb
V:1 treble nm="Grand Piano" snm="Pno."
V:4 treble 
V:2 bass 
V:3 bass 
V:1
!p!"^Tempo di Valse" z2 [B,EG]2 z2 | z2 [B,EG]2 z2 | z2 [B,EG]2 z2 | %3
 z2 [B,EG]2!p!"^Très expressif." (GB | e4 fd | %5
"^Swanilda est jalouse; elle soupçonne Frantz, son fiancé, de ne pas être indifférent a la beauté de cette bizarre créature." c4 dB | %6
 .G2{AG} .F2 .E2 | .G2) z2 (GB | e4 fd | c4 dB | .A2{BA} .G2 .F2 | .A2) z2!<(! (GA!<)! | %12
 e4!>(! d_d!>)! | c2) z2!<(! (DF!<)! | c4!>(! =B_B!>)! | A2) z2 (B,D | !>!F4) (B,D | !>!^F4) (B,D | %18
 (!>!G6) | E2) z2 (GB | e4 fd | c4 dB | .G2{AG} .F2 .E2 | .G2) z2 (GB | e4 fd |"_cresc." c4 dB | %26
 .A2{BA} .G2 .F2 | .A2) z2!<(! (GA!<)! |!sfz!!>(! a4 g!>)!_g | f2) z2!<(! (GA!<)! | %30
!sfz! g4!>(! ^f=f!>)! | e2) z2 (GB | G4)"_dim." (_GB | _G4) (FB | (E6) | %35
"^Elle essaie d’attirer son attention elle danse." e2) z2 z2 |!ff! (([Ff]2 [Gg]2)) z [Gg] | %37
 (([Gg]2 [Bb]2)) z [Bb] | ([Bb]2 [=A=a]2 [gg']) z |!>(! (([gg']4 [ff']))!>)! z | %40
!p! z .e.d'.c'.c.b | .=a.=A.g.f.F.e | .^c.d.f.d.B.G | (F4 D) z |!ff! (([Ff]2 [Gg]2)) z [Gg] | %45
 (([Gg]2 [Bb]2)) z [dd'] | ([dd']2 [cc']2 !wedge![bb']) z |!>(! (([bb']4 [gg']))!>)! z | %48
!p! z .f.d'.c'.d.c' | .b.B.=a.g.B.g | .=A.g.f.=e._e.c | .=A.G.F.=E._E.C | B, z!p! (3B=AB (3c^cd | %53
"_cresc." (3ede!<(! (3=ef^f (3g^g=a!<)! |!f! [dfb] z!p! (3.B.=A.B (3.c.^c.d | %55
"_cresc." (3.e.d.e!<(! (3.=e.f.^f (3.g.^g.=a!<)! |!f! [dfb] (B=ABAB | =ABABAB) | z (B=ABAB | %59
 =ABABAB) | z!<(! (B=ABAB | =ABA!<)!BAB) |!>(! (_AB"^dim."ABAB | ABA!>)!B)!p!(GB | e4 fd) | %65
 (c4 dB | .G2{AG} .F2 .E2 | .G2) z2 (GB | e4 fd | c4 dB | .A2{BA} .G2 .F2 | .A2) z2!<(! (GA!<)! | %72
 e4!>(! d_d!>)! | c2) z2!<(! (DF!<)! | c4!>(! =B_B!>)! | A2) z2 (B,D | !>!F4) (B,D | !>!^F4) (B,D | %78
 (!>!G6) | E2) z2 (GB | e4 fd | c4 dB | .G2{AG} .F2 .E2 | .G2) z2 (GB | e4 fd |"_cresc." c4 dB | %86
 .A2{BA} .G2 .F2 | .A2) z2!<(! (GA!<)! |!sfz! a4!>(! g_g | f2)!>)! z2!<(! (GA!<)! | %90
!sfz! g4!>(! ^f=f!>)! | e2) z2 (GB | G4)"_dim." (_GB | _G4) (FB | (E6) | %95
"^Plus animé." e) z!mf! (E3 D) | (D2 C2) e2- | e2 (D3 C) | (C2 B,2) e2- | e2 (C3 B,) | %100
 (B,2 A,2) !>!a2- | (afdB=A_A) | (GeBGEC | B,) z (E3 D) | (D2 C2) e2- | e2 (D3 C) | (C2 =B,2) g2- | %107
 g2 (f3 =e) | (g2 f3 _e) | (E2 d3 c) |{/E} cB"^cresc."=ABAB | =ABABAB | dc=BcBc | =BcBcBc | %114
 d_Bcde=e | fBcde=e | fBcde=e | f=efga=a |!f! !trill(!Tb6({=ab)} | !trill(!T=b6({^ab)} | %120
 !trill(!Tc'6({=bc')} | !trill(!!fermata!Td'6({!fermata!c'!fermata!d')} |{/g} e'2 (B,E) (EG) | %123
 (GB) (Be) (eg) | g2 (GB) (Be) | (eg) (gb) (be') | [gbe']2 z2 z2 | %127
 [gbe'g']2 z2 z3/2[K:bass] [E,E]/ | [E,E]6- | [E,E]2 z2 z2 |] %130
V:2
 [E,,E,]2 z2 z2 | [B,,,B,,]2 z2 z2 | [E,,E,]2 z2 z2 | [B,,,B,,]2 z2 z2 |{/E,,} E,2 [B,EG]2 z2 | %5
 B,,2 [B,EG]2 z2 | E,2 [G,B,]2 z2 | B,,2 [G,B,E]2 z2 | E,2 [B,EG]2 z2 | B,,2 [B,EG]2 z2 | %10
 F,2 [A,B,D]2 z2 | B,,2 [A,B,D]2 z2 | F,2 [B,DA]2 z2 | B,,2 [A,B,D]2 z2 | F,2 [B,DA]2 z2 | %15
 B,,2 [A,B,D]2 z2 | B,,2 [A,B,D]2 z2 | B,,2 [A,B,D]2 z2 | E,,2 .[B,,E,]2 .[E,G,]2 | %19
 .[G,B,]2 z2 z2 | E,2 [B,EG]2 z2 | B,,2 [B,EG]2 z2 | E,2 [G,B,]2 z2 | B,,2 [G,B,E]2 z2 | (!>!B,6 | %25
 !>!C6-) | C6- | F,2 [A,CF]2 z2 |{/F,,} F,2 [CEA]2 z2 | F,2 [_CEA]2 z2 | B,,2 [B,EG]2 z2 | %31
 B,,2 [G,B,E]2 z2 | B,,2 [A,B,D]2 z2 | B,,2 [A,B,D]2 z2 |!ped! (E,,B,,E,G,B,E | G2)!ped-up! z2 z2 | %36
!ped! [B,,,B,,]2- [B,,,B,,] z [F,B,D]2 | [B,DF]2 z2 [F,B,D]2!ped-up! | %38
!ped! [C,,C,]2- [C,,C,] z [F,=A,E] z | [F,=A,E]4- [F,A,E]!ped-up! z | z2 z2 [=A,E] z | %41
 [=A,E] z z2 [A,E] z | B,, z z2 [F,B,D] z | [F,B,D]4 z2 |!ped! [B,,,B,,]2- [B,,,B,,] z [F,B,D]2 | %45
 [B,DF]2 z2 [F,B,D]2!ped-up! |!ped! [C,,C,]2- [C,,C,] z [B,C=EG] z | [B,C=EG]4- [B,CEG] z!ped-up! | %48
 z2 z2 [DF] z | [_D=E] z z2 [DE] z | [C_E] z z2 z2 |{/F,,} F, z z2 z2 | %52
{/B,,,} B,, z[K:treble] [B,DF]z[B,DF] z | [B,CE_G]z[B,CEG]z[B,CE] z | %54
[K:bass] [B,,B,] z[K:treble] [B,DF]z[B,DF] z | [B,CE_G]z[B,CEG]z[B,CE] z | %56
[K:bass] [B,,B,] z z2 z2 | z2 z2 z z/4 (=A,/4B,/4D/4 | !>!F) z z2 z2 | z2 z2 z z/4 (=A,/4B,/4D/4 | %60
 !>!F) z z2 z2 | z6 | z6 | z6 |{/E,,} E,2 [B,EG]2 z2 | B,,2 [B,EG]2 z2 | E,2 [G,B,]2 z2 | %67
 B,,2 [G,B,E]2 z2 | E,2 [B,EG]2 z2 | B,,2 [B,EG]2 z2 | F,2 [A,B,D]2 z2 | B,,2 [A,B,D]2 z2 | %72
 F,2 [B,DA]2 z2 | B,,2 [A,B,D]2 z2 | F,2 [B,DA]2 z2 | B,,2 [A,B,D]2 z2 | B,,2 [A,B,D]2 z2 | %77
 B,,2 [A,B,D]2 z2 | E,,2 .[B,,E,]2 .[E,G,]2 | .[G,B,]2 z2 z2 | E,2 [B,EG]2 z2 | B,,2 [B,EG]2 z2 | %82
 E,2 [G,B,]2 z2 | B,,2 [G,B,E]2 z2 | (!>!B,6 | !>!C6-) | C6- | F,2 [A,CF]2 z2 | %88
{/F,,} F,2 [CEA]2 z2 | F,2 [_CEA]2 z2 | B,,2 [B,EG]2 z2 | B,,2 [G,B,E]2 z2 | B,,2 [A,B,D]2 z2 | %93
 B,,2 [A,B,D]2 z2 | (E,,B,,E,G,B,E | G) z z2 z2 | (A,,2 E,2 A,2 | C2) z2 z2 | (G,,2 E,2 G,2 | %99
 B,2) z2 z2 | (F,,2 C,2 C) z | (B,,2 A,2 D) z | (E,,2 B,,2 E,2 | G,) z z2 z2 | (A,,2 E,2 A,2 | %105
 C2) z2 z2 | (G,,2 D,2 [G,=B,]) z | C,,2 (C,2 [G,_B,]) z | F,,2 (F,2 [=A,E]) z | %109
 [F,,F,]2 [G,,G,]2 [=A,,=A,]2 | [B,,B,]2 [B,EG]2 [B,EG]2 | [B,EG]2 z2 z2 | B,,2 [=A,E^F]2 [A,EF]2 | %113
 [=A,E^F]2 z2 z2 | [B,,,B,,]2 z2 z2 |[K:treble] [B,DA]2 z2 z2 | [B,DA]2 z2 z2 | [B,DA]2 z2 z2 | %118
[K:bass] !>![B,,,B,,]6 |[K:treble] !>![B,DA]6 | !>![B,EA]6 | !>!!fermata![B,FA]6 | %122
[K:bass] [E,,E,]2[K:treble] G,2 B,2 | E2 G2 B2 | e2[K:bass] [E,E]2 [B,,B,]2 | %125
 [G,,G,]2 [B,,B,]2 [G,,G,]2 | [E,,E,]2 z2 z2 |[K:treble] [EGBe]2 z2 z3/2[K:bass] [E,,,E,,]/ | %128
 (!///-!E,,,3 E,,3) | [E,,,E,,]2 z2 z2 |] %130
V:3
 x6 | x6 | x6 | x6 | x6 | x6 | x6 | x6 | x6 | x6 | x6 | x6 | x6 | x6 | x6 | x6 | x6 | x6 | x6 | %19
 x6 | x6 | x6 | x6 | x6 | [E,G,]2 [E,G,]2 z2 | [E,G,]2 [E,G,]2 z2 | [F,A,]2 [F,A,]2 z2 | %27
 C z x2 x2 | x6 | x6 | x6 | x6 | x6 | x6 | x6 | x6 | x6 | x6 | x6 | x6 |{/F,,} F,6- | F,6 | x6 | %43
 x6 | x6 | x6 | x6 | x6 |{/F,,} F,6- | F,6 | F, x x2 x2 | x6 | x2[K:treble] x4 | x6 | %54
[K:bass] x2[K:treble] x4 | x6 |[K:bass] x6 | x6 | x6 | x6 | x6 | x6 | x6 | x6 | x6 | x6 | x6 | x6 | %68
 x6 | x6 | x6 | x6 | x6 | x6 | x6 | x6 | x6 | x6 | x6 | x6 | x6 | x6 | x6 | x6 | %84
 [E,G,]2 [E,G,]2 z2 | [E,G,]2 [E,G,]2 z2 | [F,A,]2 [F,A,]2 z2 | C z x2 x2 | x6 | x6 | x6 | x6 | %92
 x6 | x6 | x6 | x6 | x6 | x6 | x6 | x6 | x6 | x6 | x6 | x6 | A,,2 E,4- | E,2 (F,2 ^F,2) | x6 | x6 | %108
 x6 | x6 | x6 | x6 | x6 | x6 | x6 |[K:treble] x6 | x6 | x6 |[K:bass] x6 |[K:treble] x6 | x6 | x6 | %122
[K:bass] x2[K:treble] x4 | x6 | x2[K:bass] x4 | x6 | x6 |[K:treble] x11/2[K:bass] x/ | x6 | x6 |] %130
V:4
 x6 | x6 | x6 | x6 | x6 | x6 | x6 | x6 | x6 | x6 | x6 | x6 | x6 | x6 | x6 | x6 | x6 | x6 | x6 | %19
 x6 | x6 | x6 | x6 | x6 | x6 | x6 | x6 | x6 | x6 | x6 | x6 | x6 | x6 | x6 | x6 | x6 | x6 | x6 | %38
 x6 | x6 | x6 | x6 | x6 | x6 | x6 | x6 | x6 | x6 | x6 | x6 | x6 | x6 | x6 | x6 | x6 | x6 | x6 | %57
 x6 | x6 | x6 | x6 | x6 | x6 | x6 | x6 | x6 | x6 | x6 | x6 | x6 | x6 | x6 | x6 | x6 | x6 | x6 | %76
 x6 | x6 | x6 | x6 | x6 | x6 | x6 | x6 | x6 | x6 | x6 | x6 | x6 | x6 | x6 | x6 | x6 | x6 | x6 | %95
 x6 | x6 | x6 | x6 | x6 | x6 | x6 | x6 | x6 | x6 | x6 | x6 | x6 | x6 | E6 | x6 | x6 | x6 | x6 | %114
 x6 | x6 | x6 | x6 | x6 | x6 | x6 | x6 | x6 | x6 | x6 | x6 | x6 | x11/2[K:bass] x/ | x6 | x6 |] %130

